src/assets/conexao.svg

<svg width="37" height="47" viewBox="0 0 37 47" fill="none" xmlns="http://www.w3.org/2000/svg">
<path d="M36.233 12.6673C36.233 12.4932 36.233 12.3087 36.1834 12.1484C35.843 11.0425 35.2229 10.2917 34.2108 9.99073C33.7762 9.86157 33.3436 9.65745 32.9536 9.39913C27.8525 6.02713 25.0176 4.21427 19.9214 0.833047C19.6615 0.661218 19.3916 0.508993 19.075 0.316406C19.075 1.75562 19.0522 3.12103 19.0949 4.48528C19.1028 4.73553 19.335 5.03652 19.5315 5.20719C19.8748 5.50472 23.5144 7.79616 26.0763 9.50061C26.247 9.61363 26.4048 9.75317 26.5695 9.88002C26.5576 9.91808 26.5457 9.95498 26.5338 9.99304C26.3988 9.99304 26.2639 9.99304 26.1289 9.99304C24.0393 9.99073 23.5312 9.98727 21.4415 9.98842C20.4146 9.98842 21.646 9.96997 20.62 10.0046C19.4213 10.0449 18.5938 10.8014 18.318 12.0781C18.2475 12.4033 18.2257 12.7469 18.2197 13.0837C18.2128 13.4861 18.2128 13.8909 18.2128 14.298C18.1651 14.2726 18.1175 14.2461 18.0709 14.2184H9.79156C9.60899 14.2184 9.43039 14.223 9.25277 14.2311H8.83901V14.2576C3.11969 14.7235 0.345362 19.4113 0.345362 24.1891C0.345362 27.0018 1.39714 29.3498 4.20223 31.3171L10.5417 35.7639C11.1093 36.1618 11.4079 36.9252 11.2928 37.684C11.148 38.6378 10.4345 39.3331 9.60105 39.3331H0.181641V46.3101H8.55423C15.7103 46.3101 18.8379 41.0099 18.8379 36.5389C18.8379 32.7621 17.4368 31.1765 14.6318 29.2091L8.32899 24.7876C7.73959 24.3736 7.42902 23.5814 7.54908 22.7926C7.68006 21.93 8.2893 21.2865 9.02555 21.2023H18.2247V23.6356C18.2257 23.7117 18.2257 23.7866 18.2277 23.8628C18.2634 25.5245 18.9113 26.5105 20.1625 26.8196C20.4453 26.89 20.741 26.9199 21.0318 26.9199C26.4137 26.9292 27.9537 26.9407 33.3356 26.9211C33.8129 26.9199 34.3259 26.8058 34.7605 26.582C35.6892 26.1046 36.2429 25.2835 36.2389 24.0219C36.226 20.2359 36.235 16.451 36.233 12.665V12.6673Z" fill="#009373"/>
</svg>

<svg xmlns="http://www.w3.org/2000/svg" width="37" height="47" fill="none"><path fill="#009373" d="M36.233 12.667c0-.174 0-.358-.05-.519-.34-1.105-.96-1.856-1.972-2.157a4.8 4.8 0 0 1-1.257-.592C27.852 6.027 25.018 4.214 19.92.833c-.26-.172-.53-.324-.846-.517 0 1.44-.023 2.805.02 4.17.008.25.24.55.437.721.343.298 3.982 2.59 6.544 4.294.171.113.329.252.494.379l-.036.113h-.405c-2.09-.002-2.598-.006-4.687-.005-1.027 0 .204-.018-.822.017-1.199.04-2.026.796-2.302 2.073-.07.325-.092.669-.098 1.006q-.009.603-.007 1.214l-.142-.08H9.79q-.272 0-.538.013h-.414v.027c-5.72.466-8.494 5.153-8.494 9.931 0 2.813 1.052 5.16 3.857 7.128l6.34 4.447c.567.398.866 1.161.75 1.92-.144.954-.857 1.65-1.69 1.65H.181v6.976h8.372c7.156 0 10.284-5.3 10.284-9.771 0-3.777-1.401-5.363-4.206-7.33l-6.303-4.421c-.59-.414-.9-1.207-.78-1.995.131-.863.74-1.506 1.477-1.59h9.199v2.433q0 .113.003.227c.035 1.662.683 2.648 1.935 2.957.282.07.578.1.869.1 5.382.01 6.922.02 12.304.001a3.2 3.2 0 0 0 1.425-.339c.928-.477 1.482-1.299 1.478-2.56-.013-3.786-.004-7.571-.006-11.357z"/></svg>
